X:33
T:Banjo Signal
C:Frank Wakefield solo
N:Transcribed by John Baldry
R:bluegrass
A:Bluegrass and Old-Time Mandolin
L:1/8
Q:1/4=296
M:4/4
K:G
Bc |: "G"d^c de d=c Bd | "D"cB cd cB Ac | "G"BA Bc BA GB | "D"AA AB AG FA | 
"C"EC DE CD EG |1 D"D"E FA Ac BA | "G"GF GE DE DB, | DF AB dB AF :|2 F"D"E DF ED EF | 
"G"GF GA Bd ef | g2 d2 B2 GD |: "G"B,C DD DD G2 | "C"CD EE EE G2 | "D"DE FD EF DF | 
|1 G"G"B dc BA GD :|2 G8 |: "G"[b2d2] [bd][bd] [b2d2] [b2g2] | "D"aa [a2f2] [a4f4] | 
"G"[g2B2] [gB][gB] [g2B2] [e2B2] | "D"[fd][fd] [f2d2] [f4d4] | "C"[e2c2E2] [ecE][ecE] [e2c2E2] [e2c2E2] | 
"D"[fdF][fdF] [f2d2F2] [e2c2E2] [f2d2F2] |1 [g4B4G4] [f4d4F4] | "D"[e4c4E4] [A4D4] :|2 G2 B,B, CD ED | G2 D2 D2 D2 |]
|: "G"[BG]g gg [dF]a aa | "C"[cE]g gg [ecE]e [e^c=F]e | "D"[fdF]f ff [g2B2G2] [a2d2F2] | |1 [bdG]"G"b bb D2 F2 :|2 [b2d2G2] [b6d6G6] |]

